images/16758665.svg

<?xml version="1.0" encoding="UTF-8"?>
<svg xmlns="http://www.w3.org/2000/svg" xmlns:xlink="http://www.w3.org/1999/xlink" width="300pt" height="300pt" viewBox="0 0 300 300" version="1.1">
<defs>
<g>
<symbol overflow="visible" id="glyph0-0">
<path style="stroke:none;" d="M 0.453125 1.59375 L 0.453125 -6.34375 L 4.953125 -6.34375 L 4.953125 1.59375 Z M 0.953125 1.09375 L 4.453125 1.09375 L 4.453125 -5.84375 L 0.953125 -5.84375 Z M 0.953125 1.09375 "/>
</symbol>
<symbol overflow="visible" id="glyph0-1">
<path style="stroke:none;" d="M 0.890625 -6.5625 L 2.078125 -6.5625 L 4.984375 -1.078125 L 4.984375 -6.5625 L 5.84375 -6.5625 L 5.84375 0 L 4.65625 0 L 1.75 -5.484375 L 1.75 0 L 0.890625 0 Z M 0.890625 -6.5625 "/>
</symbol>
<symbol overflow="visible" id="glyph0-2">
<path style="stroke:none;" d="M 3.546875 -5.953125 C 2.898438 -5.953125 2.382812 -5.710938 2 -5.234375 C 1.625 -4.753906 1.4375 -4.101562 1.4375 -3.28125 C 1.4375 -2.445312 1.625 -1.789062 2 -1.3125 C 2.382812 -0.832031 2.898438 -0.59375 3.546875 -0.59375 C 4.191406 -0.59375 4.703125 -0.832031 5.078125 -1.3125 C 5.453125 -1.789062 5.640625 -2.445312 5.640625 -3.28125 C 5.640625 -4.101562 5.453125 -4.753906 5.078125 -5.234375 C 4.703125 -5.710938 4.191406 -5.953125 3.546875 -5.953125 Z M 3.546875 -6.6875 C 4.460938 -6.6875 5.195312 -6.375 5.75 -5.75 C 6.300781 -5.132812 6.578125 -4.3125 6.578125 -3.28125 C 6.578125 -2.238281 6.300781 -1.410156 5.75 -0.796875 C 5.195312 -0.179688 4.460938 0.125 3.546875 0.125 C 2.617188 0.125 1.878906 -0.179688 1.328125 -0.796875 C 0.773438 -1.410156 0.5 -2.238281 0.5 -3.28125 C 0.5 -4.3125 0.773438 -5.132812 1.328125 -5.75 C 1.878906 -6.375 2.617188 -6.6875 3.546875 -6.6875 Z M 3.546875 -6.6875 "/>
</symbol>
<symbol overflow="visible" id="glyph0-3">
<path style="stroke:none;" d="M 0.890625 -6.5625 L 1.765625 -6.5625 L 1.765625 -3.875 L 5 -3.875 L 5 -6.5625 L 5.890625 -6.5625 L 5.890625 0 L 5 0 L 5 -3.125 L 1.765625 -3.125 L 1.765625 0 L 0.890625 0 Z M 0.890625 -6.5625 "/>
</symbol>
</g>
</defs>
<g id="surface51769">
<rect x="0" y="0" width="300" height="300" style="fill:rgb(100%,100%,100%);fill-opacity:1;stroke:none;"/>
<path style="fill:none;stroke-width:1;stroke-linecap:butt;stroke-linejoin:miter;stroke:rgb(0%,0%,0%);stroke-opacity:1;stroke-miterlimit:10;" d="M 61.339844 167.480469 L 61.339844 167.480469 M 59.246094 165.332031 L 58.636719 166.179688 M 57.152344 163.183594 L 55.933594 164.878906 M 55.058594 161.035156 L 53.230469 163.574219 M 52.964844 158.886719 L 50.527344 162.273438 M 50.871094 156.738281 L 47.824219 160.972656 M 48.777344 154.589844 L 45.121094 159.667969 M 46.683594 152.441406 L 42.421875 158.367188 M 44.695312 150.40625 L 39.859375 157.132812 "/>
<path style="fill:none;stroke-width:1.2;stroke-linecap:butt;stroke-linejoin:miter;stroke:rgb(0%,0%,0%);stroke-opacity:1;stroke-miterlimit:10;" d="M 61.339844 167.480469 L 58.996094 190.84375 "/>
<path style="fill:none;stroke-width:1.2;stroke-linecap:butt;stroke-linejoin:miter;stroke:rgb(0%,0%,0%);stroke-opacity:1;stroke-miterlimit:10;" d="M 61.339844 167.480469 L 72.042969 162.652344 "/>
<path style="fill:none;stroke-width:1.2;stroke-linecap:butt;stroke-linejoin:miter;stroke:rgb(0%,0%,100%);stroke-opacity:1;stroke-miterlimit:10;" d="M 72.042969 162.652344 L 82.746094 157.828125 "/>
<path style="fill:none;stroke-width:1.2;stroke-linecap:butt;stroke-linejoin:miter;stroke:rgb(0%,0%,0%);stroke-opacity:1;stroke-miterlimit:10;" d="M 58.996094 190.84375 L 37.59375 200.496094 "/>
<path style="fill:none;stroke-width:1.2;stroke-linecap:butt;stroke-linejoin:miter;stroke:rgb(0%,0%,0%);stroke-opacity:1;stroke-miterlimit:10;" d="M 59.128906 196.847656 L 42.003906 204.570312 "/>
<path style="fill:none;stroke-width:1.2;stroke-linecap:butt;stroke-linejoin:miter;stroke:rgb(0%,0%,0%);stroke-opacity:1;stroke-miterlimit:10;" d="M 78.058594 204.554688 L 58.996094 190.84375 "/>
<path style="fill:none;stroke-width:1.2;stroke-linecap:butt;stroke-linejoin:miter;stroke:rgb(0%,0%,0%);stroke-opacity:1;stroke-miterlimit:10;" d="M 37.59375 200.496094 L 35.25 223.863281 "/>
<path style="fill:none;stroke-width:1.2;stroke-linecap:butt;stroke-linejoin:miter;stroke:rgb(0%,0%,0%);stroke-opacity:1;stroke-miterlimit:10;" d="M 35.25 223.863281 L 54.3125 237.570312 "/>
<path style="fill:none;stroke-width:1.2;stroke-linecap:butt;stroke-linejoin:miter;stroke:rgb(0%,0%,0%);stroke-opacity:1;stroke-miterlimit:10;" d="M 40.382812 220.746094 L 55.632812 231.714844 "/>
<path style="fill:none;stroke-width:1.2;stroke-linecap:butt;stroke-linejoin:miter;stroke:rgb(0%,0%,0%);stroke-opacity:1;stroke-miterlimit:10;" d="M 54.3125 237.570312 L 75.71875 227.917969 "/>
<path style="fill:none;stroke-width:1.2;stroke-linecap:butt;stroke-linejoin:miter;stroke:rgb(0%,0%,0%);stroke-opacity:1;stroke-miterlimit:10;" d="M 75.71875 227.917969 L 78.058594 204.554688 "/>
<path style="fill:none;stroke-width:1.2;stroke-linecap:butt;stroke-linejoin:miter;stroke:rgb(0%,0%,0%);stroke-opacity:1;stroke-miterlimit:10;" d="M 70.453125 225.03125 L 72.328125 206.339844 "/>
<path style="fill:none;stroke-width:1.2;stroke-linecap:butt;stroke-linejoin:miter;stroke:rgb(0%,0%,100%);stroke-opacity:1;stroke-miterlimit:10;" d="M 82.746094 157.828125 L 92.941406 163.648438 "/>
<path style="fill:none;stroke-width:1.2;stroke-linecap:butt;stroke-linejoin:miter;stroke:rgb(0%,0%,0%);stroke-opacity:1;stroke-miterlimit:10;" d="M 92.941406 163.648438 L 103.136719 169.46875 "/>
<path style="fill:none;stroke-width:1.2;stroke-linecap:butt;stroke-linejoin:miter;stroke:rgb(0%,0%,0%);stroke-opacity:1;stroke-miterlimit:10;" d="M 87.515625 134.835938 L 85.128906 146.332031 "/>
<path style="fill:none;stroke-width:1.2;stroke-linecap:butt;stroke-linejoin:miter;stroke:rgb(0%,0%,100%);stroke-opacity:1;stroke-miterlimit:10;" d="M 85.128906 146.332031 L 82.746094 157.828125 "/>
<path style=" stroke:none;fill-rule:nonzero;fill:rgb(100%,100%,100%);fill-opacity:1;" d="M 79.746094 152.328125 L 86.746094 152.328125 L 86.746094 163.328125 L 79.746094 163.328125 Z M 79.746094 152.328125 "/>
<g style="fill:rgb(0%,0%,100%);fill-opacity:1;">
  <use xlink:href="#glyph0-1" x="79.746094" y="160.991211"/>
</g>
<path style="fill:none;stroke-width:1.2;stroke-linecap:butt;stroke-linejoin:miter;stroke:rgb(0%,0%,0%);stroke-opacity:1;stroke-miterlimit:10;" d="M 100.390625 169.773438 L 101.671875 181.441406 "/>
<path style="fill:none;stroke-width:1.2;stroke-linecap:butt;stroke-linejoin:miter;stroke:rgb(100%,0%,0%);stroke-opacity:1;stroke-miterlimit:10;" d="M 101.671875 181.441406 L 102.957031 193.113281 "/>
<path style="fill:none;stroke-width:1.2;stroke-linecap:butt;stroke-linejoin:miter;stroke:rgb(0%,0%,0%);stroke-opacity:1;stroke-miterlimit:10;" d="M 105.882812 169.167969 L 107.164062 180.839844 "/>
<path style="fill:none;stroke-width:1.2;stroke-linecap:butt;stroke-linejoin:miter;stroke:rgb(100%,0%,0%);stroke-opacity:1;stroke-miterlimit:10;" d="M 107.164062 180.839844 L 108.449219 192.507812 "/>
<path style="fill:none;stroke-width:1;stroke-linecap:butt;stroke-linejoin:miter;stroke:rgb(0%,0%,0%);stroke-opacity:1;stroke-miterlimit:10;" d="M 120.511719 153.675781 L 120.511719 153.675781 M 117.972656 155.277344 L 118.675781 156.046875 M 115.4375 156.878906 L 116.839844 158.421875 M 112.898438 158.480469 L 115.003906 160.792969 M 110.363281 160.082031 L 113.167969 163.167969 M 107.828125 161.683594 L 111.332031 165.539062 M 105.289062 163.285156 L 109.5 167.914062 M 102.753906 164.886719 L 107.664062 170.285156 M 100.347656 166.402344 L 105.921875 172.535156 "/>
<path style=" stroke:none;fill-rule:nonzero;fill:rgb(100%,100%,100%);fill-opacity:1;" d="M 101.703125 187.308594 L 109.703125 187.308594 L 109.703125 198.308594 L 101.703125 198.308594 Z M 101.703125 187.308594 "/>
<g style="fill:rgb(100%,0%,0%);fill-opacity:1;">
  <use xlink:href="#glyph0-2" x="101.703125" y="195.97168"/>
</g>
<path style="fill:none;stroke-width:1.2;stroke-linecap:butt;stroke-linejoin:miter;stroke:rgb(0%,0%,0%);stroke-opacity:1;stroke-miterlimit:10;" d="M 120.511719 153.675781 L 143.875 156.015625 "/>
<path style="fill:none;stroke-width:1.2;stroke-linecap:butt;stroke-linejoin:miter;stroke:rgb(0%,0%,0%);stroke-opacity:1;stroke-miterlimit:10;" d="M 110.855469 132.269531 L 120.511719 153.675781 "/>
<path style="fill:none;stroke-width:1.2;stroke-linecap:butt;stroke-linejoin:miter;stroke:rgb(0%,0%,0%);stroke-opacity:1;stroke-miterlimit:10;" d="M 143.875 156.015625 L 157.585938 136.957031 "/>
<path style=" stroke:none;fill-rule:nonzero;fill:rgb(0%,0%,0%);fill-opacity:1;" d="M 147.929688 115.550781 L 153.808594 138.660156 L 161.363281 135.25 Z M 147.929688 115.550781 "/>
<path style=" stroke:none;fill-rule:nonzero;fill:rgb(0%,0%,0%);fill-opacity:1;" d="M 147.929688 115.550781 L 124.980469 109.085938 L 124.152344 117.332031 Z M 147.929688 115.550781 "/>
<path style="fill:none;stroke-width:1.2;stroke-linecap:butt;stroke-linejoin:miter;stroke:rgb(0%,0%,0%);stroke-opacity:1;stroke-miterlimit:10;" d="M 147.929688 115.550781 L 161.640625 96.488281 "/>
<path style="fill:none;stroke-width:1.2;stroke-linecap:butt;stroke-linejoin:miter;stroke:rgb(0%,0%,0%);stroke-opacity:1;stroke-miterlimit:10;" d="M 124.566406 113.207031 L 110.855469 132.269531 "/>
<path style="fill:none;stroke-width:1.2;stroke-linecap:butt;stroke-linejoin:miter;stroke:rgb(0%,0%,0%);stroke-opacity:1;stroke-miterlimit:10;" d="M 124.566406 113.207031 L 114.914062 91.804688 "/>
<path style=" stroke:none;fill-rule:nonzero;fill:rgb(0%,0%,0%);fill-opacity:1;" d="M 110.855469 132.269531 L 87.0625 130.71875 L 87.96875 138.957031 Z M 110.855469 132.269531 "/>
<path style="fill:none;stroke-width:1.2;stroke-linecap:butt;stroke-linejoin:miter;stroke:rgb(0%,0%,0%);stroke-opacity:1;stroke-miterlimit:10;" d="M 89.5625 132.976562 L 81.664062 124.292969 "/>
<path style="fill:none;stroke-width:1.2;stroke-linecap:butt;stroke-linejoin:miter;stroke:rgb(100%,0%,0%);stroke-opacity:1;stroke-miterlimit:10;" d="M 81.664062 124.292969 L 73.765625 115.605469 "/>
<path style="fill:none;stroke-width:1.2;stroke-linecap:butt;stroke-linejoin:miter;stroke:rgb(0%,0%,0%);stroke-opacity:1;stroke-miterlimit:10;" d="M 85.472656 136.695312 L 77.574219 128.007812 "/>
<path style="fill:none;stroke-width:1.2;stroke-linecap:butt;stroke-linejoin:miter;stroke:rgb(100%,0%,0%);stroke-opacity:1;stroke-miterlimit:10;" d="M 77.574219 128.007812 L 69.675781 119.320312 "/>
<path style=" stroke:none;fill-rule:nonzero;fill:rgb(100%,100%,100%);fill-opacity:1;" d="M 63.722656 111.960938 L 71.722656 111.960938 L 71.722656 122.960938 L 63.722656 122.960938 Z M 63.722656 111.960938 "/>
<g style="fill:rgb(100%,0%,0%);fill-opacity:1;">
  <use xlink:href="#glyph0-2" x="63.722656" y="120.624023"/>
</g>
<path style="fill:none;stroke-width:1.2;stroke-linecap:butt;stroke-linejoin:miter;stroke:rgb(0%,0%,0%);stroke-opacity:1;stroke-miterlimit:10;" d="M 114.914062 91.804688 L 128.625 72.742188 "/>
<path style="fill:none;stroke-width:1;stroke-linecap:butt;stroke-linejoin:miter;stroke:rgb(0%,0%,0%);stroke-opacity:1;stroke-miterlimit:10;" d="M 114.914062 91.804688 L 114.914062 91.804688 M 112.027344 90.988281 L 111.921875 92.027344 M 109.140625 90.175781 L 108.929688 92.25 M 106.25 89.363281 L 105.9375 92.476562 M 103.363281 88.550781 L 102.949219 92.699219 M 100.476562 87.734375 L 99.957031 92.921875 M 97.589844 86.921875 L 96.964844 93.148438 M 94.699219 86.109375 L 93.972656 93.371094 M 91.964844 85.335938 L 91.136719 93.582031 "/>
<path style="fill:none;stroke-width:1.2;stroke-linecap:butt;stroke-linejoin:miter;stroke:rgb(0%,0%,0%);stroke-opacity:1;stroke-miterlimit:10;" d="M 128.625 72.742188 L 151.988281 75.082031 "/>
<path style="fill:none;stroke-width:1;stroke-linecap:butt;stroke-linejoin:miter;stroke:rgb(0%,0%,0%);stroke-opacity:1;stroke-miterlimit:10;" d="M 128.625 72.742188 L 128.625 72.742188 M 127.886719 69.832031 L 126.933594 70.261719 M 127.144531 66.925781 L 125.246094 67.78125 M 126.40625 64.019531 L 123.554688 65.304688 M 125.667969 61.109375 L 121.867188 62.824219 M 124.929688 58.203125 L 120.175781 60.347656 M 124.1875 55.296875 L 118.484375 57.867188 M 123.449219 52.386719 L 116.796875 55.390625 M 122.75 49.632812 L 115.195312 53.039062 "/>
<path style="fill:none;stroke-width:1.2;stroke-linecap:butt;stroke-linejoin:miter;stroke:rgb(0%,0%,0%);stroke-opacity:1;stroke-miterlimit:10;" d="M 151.988281 75.082031 L 161.640625 96.488281 "/>
<path style="fill:none;stroke-width:1.2;stroke-linecap:butt;stroke-linejoin:miter;stroke:rgb(0%,0%,0%);stroke-opacity:1;stroke-miterlimit:10;" d="M 161.640625 96.488281 L 173.324219 97.660156 "/>
<path style="fill:none;stroke-width:1.2;stroke-linecap:butt;stroke-linejoin:miter;stroke:rgb(0%,0%,100%);stroke-opacity:1;stroke-miterlimit:10;" d="M 173.324219 97.660156 L 185.003906 98.832031 "/>
<path style="fill:none;stroke-width:1.2;stroke-linecap:butt;stroke-linejoin:miter;stroke:rgb(0%,0%,0%);stroke-opacity:1;stroke-miterlimit:10;" d="M 163.425781 102.21875 L 172.773438 103.15625 "/>
<path style="fill:none;stroke-width:1.2;stroke-linecap:butt;stroke-linejoin:miter;stroke:rgb(0%,0%,100%);stroke-opacity:1;stroke-miterlimit:10;" d="M 172.773438 103.15625 L 182.117188 104.09375 "/>
<path style="fill:none;stroke-width:1.2;stroke-linecap:butt;stroke-linejoin:miter;stroke:rgb(0%,0%,100%);stroke-opacity:1;stroke-miterlimit:10;" d="M 185.003906 98.832031 L 189.832031 109.53125 "/>
<path style="fill:none;stroke-width:1.2;stroke-linecap:butt;stroke-linejoin:miter;stroke:rgb(100%,0%,0%);stroke-opacity:1;stroke-miterlimit:10;" d="M 189.832031 109.53125 L 194.660156 120.234375 "/>
<path style=" stroke:none;fill-rule:nonzero;fill:rgb(100%,100%,100%);fill-opacity:1;" d="M 182.003906 93.332031 L 189.003906 93.332031 L 189.003906 104.332031 L 182.003906 104.332031 Z M 182.003906 93.332031 "/>
<g style="fill:rgb(0%,0%,100%);fill-opacity:1;">
  <use xlink:href="#glyph0-1" x="182.003906" y="101.995117"/>
</g>
<path style="fill:none;stroke-width:1.2;stroke-linecap:butt;stroke-linejoin:miter;stroke:rgb(100%,0%,0%);stroke-opacity:1;stroke-miterlimit:10;" d="M 194.660156 120.234375 L 206.339844 121.40625 "/>
<path style="fill:none;stroke-width:1.2;stroke-linecap:butt;stroke-linejoin:miter;stroke:rgb(0%,0%,0%);stroke-opacity:1;stroke-miterlimit:10;" d="M 206.339844 121.40625 L 218.023438 122.578125 "/>
<path style=" stroke:none;fill-rule:nonzero;fill:rgb(100%,100%,100%);fill-opacity:1;" d="M 190.660156 114.734375 L 198.660156 114.734375 L 198.660156 125.734375 L 190.660156 125.734375 Z M 190.660156 114.734375 "/>
<g style="fill:rgb(100%,0%,0%);fill-opacity:1;">
  <use xlink:href="#glyph0-2" x="190.660156" y="123.397461"/>
</g>
<path style="fill:none;stroke-width:1.2;stroke-linecap:butt;stroke-linejoin:miter;stroke:rgb(0%,0%,0%);stroke-opacity:1;stroke-miterlimit:10;" d="M 218.023438 122.578125 L 227.675781 143.984375 "/>
<path style="fill:none;stroke-width:1.2;stroke-linecap:butt;stroke-linejoin:miter;stroke:rgb(0%,0%,0%);stroke-opacity:1;stroke-miterlimit:10;" d="M 227.675781 143.984375 L 251.039062 146.324219 "/>
<path style="fill:none;stroke-width:1.2;stroke-linecap:butt;stroke-linejoin:miter;stroke:rgb(0%,0%,0%);stroke-opacity:1;stroke-miterlimit:10;" d="M 229.460938 149.714844 L 248.152344 151.589844 "/>
<path style="fill:none;stroke-width:1.2;stroke-linecap:butt;stroke-linejoin:miter;stroke:rgb(0%,0%,0%);stroke-opacity:1;stroke-miterlimit:10;" d="M 251.039062 146.324219 L 264.75 127.261719 "/>
<path style="fill:none;stroke-width:1.2;stroke-linecap:butt;stroke-linejoin:miter;stroke:rgb(0%,0%,0%);stroke-opacity:1;stroke-miterlimit:10;" d="M 251.039062 146.324219 L 260.691406 167.730469 "/>
<path style="fill:none;stroke-width:1.2;stroke-linecap:butt;stroke-linejoin:miter;stroke:rgb(0%,0%,0%);stroke-opacity:1;stroke-miterlimit:10;" d="M 260.691406 167.730469 L 246.980469 186.792969 "/>
<path style="fill:none;stroke-width:1.2;stroke-linecap:butt;stroke-linejoin:miter;stroke:rgb(0%,0%,0%);stroke-opacity:1;stroke-miterlimit:10;" d="M 246.980469 186.792969 L 256.636719 208.195312 "/>
<path style="fill:none;stroke-width:1.2;stroke-linecap:butt;stroke-linejoin:miter;stroke:rgb(0%,0%,0%);stroke-opacity:1;stroke-miterlimit:10;" d="M 256.636719 208.195312 L 242.925781 227.257812 "/>
<path style="fill:none;stroke-width:1.2;stroke-linecap:butt;stroke-linejoin:miter;stroke:rgb(0%,0%,0%);stroke-opacity:1;stroke-miterlimit:10;" d="M 250.777344 206.878906 L 239.8125 222.128906 "/>
<path style="fill:none;stroke-width:1.2;stroke-linecap:butt;stroke-linejoin:miter;stroke:rgb(0%,0%,0%);stroke-opacity:1;stroke-miterlimit:10;" d="M 242.925781 227.257812 L 252.578125 248.664062 "/>
<path style="fill:none;stroke-width:1.2;stroke-linecap:butt;stroke-linejoin:miter;stroke:rgb(0%,0%,0%);stroke-opacity:1;stroke-miterlimit:10;" d="M 242.925781 227.257812 L 219.5625 224.917969 "/>
<path style=" stroke:none;fill-rule:nonzero;fill:rgb(100%,100%,100%);fill-opacity:1;" d="M 103.972656 45.835938 L 118.972656 45.835938 L 118.972656 56.835938 L 103.972656 56.835938 Z M 103.972656 45.835938 "/>
<g style="fill:rgb(100%,0%,0%);fill-opacity:1;">
  <use xlink:href="#glyph0-3" x="103.972656" y="54.499023"/>
  <use xlink:href="#glyph0-2" x="110.987305" y="54.499023"/>
</g>
<path style=" stroke:none;fill-rule:nonzero;fill:rgb(100%,100%,100%);fill-opacity:1;" d="M 76.550781 83.960938 L 91.550781 83.960938 L 91.550781 94.960938 L 76.550781 94.960938 Z M 76.550781 83.960938 "/>
<g style="fill:rgb(100%,0%,0%);fill-opacity:1;">
  <use xlink:href="#glyph0-3" x="76.550781" y="92.624023"/>
  <use xlink:href="#glyph0-2" x="83.56543" y="92.624023"/>
</g>
</g>
</svg>

<svg xmlns="http://www.w3.org/2000/svg" xmlns:xlink="http://www.w3.org/1999/xlink" width="300pt" height="300pt" viewBox="0 0 300 300"><defs><symbol overflow="visible"><path d="M.453 1.594v-7.938h4.5v7.938zm.5-.5h3.5v-6.938h-3.5zm0 0"/></symbol><symbol overflow="visible" id="a"><path d="M.89-6.563H2.08l2.906 5.485v-5.484h.86V0H4.656L1.75-5.484V0H.89zm0 0"/></symbol><symbol overflow="visible" id="b"><path d="M3.547-5.953c-.65 0-1.164.242-1.547.72-.375.48-.563 1.13-.563 1.952 0 .835.188 1.49.563 1.967.383.48.898.72 1.547.72.644 0 1.156-.24 1.53-.72.376-.476.564-1.132.564-1.968 0-.822-.187-1.474-.562-1.954-.375-.477-.887-.72-1.53-.72zm0-.734c.914 0 1.648.312 2.203.937.55.617.828 1.438.828 2.47 0 1.042-.277 1.87-.828 2.483-.555.617-1.29.922-2.203.922-.93 0-1.668-.305-2.22-.922C.774-1.41.5-2.237.5-3.28c0-1.033.273-1.853.828-2.47.55-.625 1.29-.938 2.22-.938zm0 0"/></symbol><symbol overflow="visible" id="c"><path d="M.89-6.563h.876v2.688H5v-2.688h.89V0H5v-3.125H1.766V0H.89zm0 0"/></symbol></defs><g><path fill="#fff" d="M0 0h300v300H0z"/><path d="M61.34 167.48m-2.094-2.148l-.61.848m-1.484-2.996l-1.218 1.695m-.875-3.845l-1.83 2.54m-.265-4.688l-2.438 3.386m.344-5.535l-3.046 4.235m.953-6.383l-3.656 5.078m1.564-7.227l-4.262 5.927m2.273-7.96l-4.836 6.726" stroke="#000" stroke-miterlimit="10" fill="none"/><path d="M61.34 167.48l-2.344 23.364M61.34 167.48l10.703-4.828" stroke-width="1.2" stroke="#000" stroke-miterlimit="10" fill="none"/><path d="M72.043 162.652l10.703-4.824" stroke-width="1.2" stroke="#00f" stroke-miterlimit="10" fill="none"/><path d="M58.996 190.844l-21.402 9.652M59.13 196.848l-17.126 7.722M78.06 204.555l-19.064-13.71M37.594 200.496l-2.344 23.367M35.25 223.863l19.063 13.707M40.383 220.746l15.25 10.97M54.313 237.57l21.406-9.652M75.72 227.918l2.34-23.363M70.453 225.03l1.875-18.69" stroke-width="1.2" stroke="#000" stroke-miterlimit="10" fill="none"/><path d="M82.746 157.828l10.195 5.82" stroke-width="1.2" stroke="#00f" stroke-miterlimit="10" fill="none"/><path d="M92.94 163.648l10.197 5.82M87.516 134.836l-2.387 11.496" stroke-width="1.2" stroke="#000" stroke-miterlimit="10" fill="none"/><path d="M85.13 146.332l-2.384 11.496" stroke-width="1.2" stroke="#00f" stroke-miterlimit="10" fill="none"/><path d="M79.746 152.328h7v11h-7zm0 0" fill="#fff"/><use xlink:href="#a" x="79.746" y="160.991" fill="#00f"/><path d="M100.39 169.773l1.282 11.668" stroke-width="1.2" stroke="#000" stroke-miterlimit="10" fill="none"/><path d="M101.672 181.44l1.285 11.673" stroke-width="1.2" stroke="#f00" stroke-miterlimit="10" fill="none"/><path d="M105.883 169.168l1.28 11.672" stroke-width="1.2" stroke="#000" stroke-miterlimit="10" fill="none"/><path d="M107.164 180.84l1.285 11.668" stroke-width="1.2" stroke="#f00" stroke-miterlimit="10" fill="none"/><path d="M120.512 153.676m-2.54 1.6l.704.77m-3.24.833l1.404 1.542m-3.942.058l2.106 2.313m-4.64-.71l2.804 3.085m-5.34-1.484l3.504 3.855m-6.043-2.255l4.21 4.63m-6.746-3.028l4.91 5.398m-7.316-3.883l5.574 6.133" stroke="#000" stroke-miterlimit="10" fill="none"/><path d="M101.703 187.31h8v11h-8zm0 0" fill="#fff"/><use xlink:href="#b" x="101.703" y="195.972" fill="#f00"/><path d="M120.512 153.676l23.363 2.34M110.855 132.27l9.657 21.406M143.875 156.016l13.71-19.06" stroke-width="1.2" stroke="#000" stroke-miterlimit="10" fill="none"/><path d="M147.93 115.55l5.88 23.11 7.553-3.41zm0 0M147.93 115.55l-22.95-6.464-.828 8.246zm0 0"/><path d="M147.93 115.55l13.71-19.062M124.566 113.207l-13.71 19.063M124.566 113.207l-9.652-21.402" stroke-width="1.2" stroke="#000" stroke-miterlimit="10" fill="none"/><path d="M110.855 132.27l-23.793-1.55.907 8.237zm0 0"/><path d="M89.563 132.977l-7.9-8.684" stroke-width="1.2" stroke="#000" stroke-miterlimit="10" fill="none"/><path d="M81.664 124.293l-7.898-8.688" stroke-width="1.2" stroke="#f00" stroke-miterlimit="10" fill="none"/><path d="M85.473 136.695l-7.9-8.687" stroke-width="1.2" stroke="#000" stroke-miterlimit="10" fill="none"/><path d="M77.574 128.008l-7.898-8.688" stroke-width="1.2" stroke="#f00" stroke-miterlimit="10" fill="none"/><path d="M63.723 111.96h8v11h-8zm0 0" fill="#fff"/><use xlink:href="#b" x="63.723" y="120.624" fill="#f00"/><path d="M114.914 91.805l13.71-19.063" stroke-width="1.2" stroke="#000" stroke-miterlimit="10" fill="none"/><path d="M114.914 91.805m-2.887-.817l-.105 1.04m-2.78-1.852l-.212 2.074m-2.68-2.887l-.313 3.114m-2.574-3.926l-.414 4.15m-2.473-4.966l-.52 5.188m-2.367-6l-.625 6.226m-2.266-7.04l-.727 7.263m-2.008-8.034l-.828 8.246" stroke="#000" stroke-miterlimit="10" fill="none"/><path d="M128.625 72.742l23.363 2.34" stroke-width="1.2" stroke="#000" stroke-miterlimit="10" fill="none"/><path d="M128.625 72.742m-.738-2.91l-.953.43m.21-3.336l-1.898.855m1.16-3.76l-2.85 1.285m2.112-4.196l-3.8 1.714m3.062-4.62l-4.754 2.144m4.01-5.05l-5.702 2.57m4.965-5.48l-6.653 3.003m5.953-5.757l-7.555 3.406" stroke="#000" stroke-miterlimit="10" fill="none"/><path d="M151.988 75.082l9.653 21.406M161.64 96.488l11.684 1.172" stroke-width="1.2" stroke="#000" stroke-miterlimit="10" fill="none"/><path d="M173.324 97.66l11.68 1.172" stroke-width="1.2" stroke="#00f" stroke-miterlimit="10" fill="none"/><path d="M163.426 102.22l9.347.936" stroke-width="1.2" stroke="#000" stroke-miterlimit="10" fill="none"/><path d="M172.773 103.156l9.344.938M185.004 98.832l4.828 10.7" stroke-width="1.2" stroke="#00f" stroke-miterlimit="10" fill="none"/><path d="M189.832 109.53l4.828 10.704" stroke-width="1.2" stroke="#f00" stroke-miterlimit="10" fill="none"/><path d="M182.004 93.332h7v11h-7zm0 0" fill="#fff"/><use xlink:href="#a" x="182.004" y="101.995" fill="#00f"/><path d="M194.66 120.234l11.68 1.172" stroke-width="1.2" stroke="#f00" stroke-miterlimit="10" fill="none"/><path d="M206.34 121.406l11.683 1.172" stroke-width="1.2" stroke="#000" stroke-miterlimit="10" fill="none"/><path d="M190.66 114.734h8v11h-8zm0 0" fill="#fff"/><use xlink:href="#b" x="190.66" y="123.397" fill="#f00"/><path d="M218.023 122.578l9.653 21.406M227.676 143.984l23.363 2.34M229.46 149.715l18.692 1.875M251.04 146.324l13.71-19.062M251.04 146.324l9.65 21.406M260.69 167.73l-13.71 19.063M246.98 186.793l9.657 21.402M256.637 208.195l-13.71 19.063M250.777 206.88l-10.964 15.25M242.926 227.258l9.652 21.406M242.926 227.258l-23.363-2.34" stroke-width="1.2" stroke="#000" stroke-miterlimit="10" fill="none"/><path d="M103.973 45.836h15v11h-15zm0 0" fill="#fff"/><g fill="#f00"><use xlink:href="#c" x="103.973" y="54.499"/><use xlink:href="#b" x="110.987" y="54.499"/></g><path d="M76.55 83.96h15v11h-15zm0 0" fill="#fff"/><g fill="#f00"><use xlink:href="#c" x="76.551" y="92.624"/><use xlink:href="#b" x="83.565" y="92.624"/></g></g></svg>
